X:17896
T:Tuohy's
R:Reel
S:
H:
N:
D:
Z:Adrian Scahill
M:4/4
L:1/8
K:G 
BEE2 BAFA|D2(3FED ADFA|BEE2 BAFA|(3Bcd eg feed:||\
e2ge Bege|defg agfg|(3efe ge Bege|defa geeB|\
e2ge Bege|defg afga|bgaf gfed|(3Bcd eg feed||\
